!!!COM: Frank Martin
!!!OTL: [T540_Mai-w11p3h2m3-h3m4]
**kern	**kern	**dynam	**kern	**dynam	**kern	**dynam
*grp:A	*grp:A	*grp:A	*grp:B	*grp:B	*grp:A	*grp:A
*part3	*part3	*part3	*part2	*part2	*part1	*part1
*staff4	*staff3	*	*staff2	*	*staff1	*
*I"Piano	*	*	*I"Violoncello	*	*I"Violin	*
*I'Pno.	*	*	*I'Vc.	*	*I'Vln.	*
!!pagebreak:original
*clefF4	*clefG2	*	*clefC4	*	*clefG2	*
*k[b-]	*k[b-]	*	*k[b-]	*	*k[b-]	*
*F:	*F:	*	*F:	*	*F:	*
*M4/4	*M4/4	*	*M4/4	*	*M4/4	*
=1	=1	=1	=1	=1	=1	=1
!	!	!	!	!LO:DY:ed=brack	!LO:TX:t=[quarter]=126	!LO:DY:ed=brack
!	!	!LO:DY:ed=brack	!	!LO:DY:t=poco menop %s	!	!LO:DY:t=%s un poco marcato
]4CC ]4GG	]4c ]4g	ppp	4ryy	4ryy	]4G ]4d	ppp
4CC 4GG	4c 4g	.	8.ryy	.	4G 4d	.
.	.	.	16ryy	.	.	.
4CC 4GG	4c 4g	.	8ryy	.	4G 4d	.
.	.	.	8ryy	.	.	.
[4CC [4GG	[4c [4g	.	8ryy	.	[4G [4d	.
.	.	.	8ryy	.	.	.
=2	=2	=2	=2	=2	=2	=2
4CC] 4GG]	4c] 4g]	.	4.ryy	.	4G] 4d]	.
4CC 4GG	4c 4g	.	.	.	4G 4d	.
.	.	.	8ryy	.	.	.
2CC 2GG	2c 2g	.	4ryy	.	2G 2e	.
.	.	.	8ryy	.	.	.
.	.	.	8ryy	.	.	.
=3	=3	=3	=3	=3	=3	=3
.	.	.	8ryy	.	.	.
.	.	.	8ryy	.	.	.
2CC 2GG	2c 2g	.	8ryy	.	2G 2d	.
.	.	.	8ryy	.	.	.
.	.	.	8ryy	.	.	.
.	.	.	8ryy	.	.	.
2CC 2GG	2c 2g	.	8.ryy	.	2G 2e	.
.	.	.	16ryy	.	.	.
.	.	.	16ryy	.	.	.
.	.	.	16ryy	.	.	.
.	.	.	16ryy	.	.	.
.	.	.	16ryy	.	.	.
=4	=4	=4	=4	=4	=4	=4
4CC 4GG	4c 4g	.	8ryy	.	4G 4d	.
.	.	.	24ryy	.	.	.
.	.	.	24ryy	.	.	.
.	.	.	24ryy	.	.	.
2CC 2GG	2c 2g	.	8ryy	.	2G 2d	.
.	.	.	8ryy	.	.	.
.	.	.	4ryy	.	.	.
[4CC [4GG	[4c [4g	.	8ryy	.	[4G [4f	.
.	.	.	8ryy	.	.	.
=5	=5	=5	=5	=5	=5	=5
4CC] 4GG]	4c] 4g]	.	4ryy	.	4G] 4f]	.
4CC 4GG	4c 4g	.	8.ryy	.	4G 4e	.
.	.	.	16ryy	.	.	.
4CC 4GG	4c 4g	.	8ryy	.	4G 4d	.
.	.	.	8ryy	.	.	.
[4CC [4GG	[4c [4g	.	8ryy	.	[4G [4f	.
.	.	.	8ryy	.	.	.
!!linebreak:original
=6	=6	=6	=6	=6	=6	=6
*	*	*	*	*	*^	*
4CC] 4GG]	4c] 4g]	.	2.ryy	.	4G] 4f]	4ryy	.
4CC 4GG	4c 4g	.	.	.	12dL	4G	.
.	.	.	.	.	12e	.	.
.	.	.	.	.	12fJ	.	.
*	*	*	*	*	*v	*v	*
2CC 2GG	2c 2g	.	.	.	2G 2e	.
.	.	.	8ryy	.	.	.
.	.	.	8ryy	.	.	.
!!LO:REH:t=3
=7	=7	=7	=7	=7	=7	=7
.	.	.	8ryy	.	.	.
.	.	.	8ryy	.	.	.
!	!	!LO:DY:t=poco menop %s	!	!	!	!LO:DY:t=poco menop %s
4CC 4GG	4c 4g	pp	8ryy	.	4G 4d	pp
.	.	.	8ryy	.	.	.
[4CC [4GG	[4c [4g	.	8ryy	.	[4G [4d	.
.	.	.	8ryy	.	.	.
8CCL] 8GG]	8cL] 8g]	.	8.ryy	.	8GL] 8d]	.
8CC 8GG	8c 8g	.	.	.	8G 8d	.
.	.	.	16ryy	.	.	.
8CC 8GG	8c 8g	.	16ryy	.	8G 8d	.
.	.	.	16ryy	.	.	.
8CCJ 8GG	8cJ 8g	.	16ryy	.	8GJ 8d	.
.	.	.	16ryy	.	.	.
=8	=8	=8	=8	=8	=8	=8
8CC 8GG	8c 8g	.	8ryy	.	8G 8d	.
4CC 4GG	4c 4g	.	24ryy	.	4G 4d	.
.	.	.	24ryy	.	.	.
.	.	.	24ryy	.	.	.
.	.	.	8ryy	.	.	.
[8CC [8GG	[8c [8g	.	8ryy	.	[8G [8d	.
*	*	*	*clefG2	*	*	*
8CCL] 8GG]	8cL] 8g]	.	4ryy	.	8GL] 8d]	.
8CCJ 8GG	8cJ 8g	.	.	.	8GJ 8d	.
4CC 4GG	4c 4g	.	8ryy	.	4G 4d	.
.	.	.	8ryy	.	.	.
=9	=9	=9	=9	=9	=9	=9
8CCL 8GG	8cL 8g	<	4ryy	.	8GL 8e	<
8CC 8GG	8c 8g	.	.	.	8G 8e	.
8CC 8GG	8c 8g	.	8.ryy	4ryy	8G 8e	.
[8CCJ [8GG	[8cJ [8g	.	.	.	[8GJ [8e	.
.	.	.	16ryy	.	.	.
8CCL] 8GG]	8cL] 8g]	.	8ryy	.	8GL] 8e]	.
8CCJ 8GG	8cJ 8g	.	8ryy	.	8GJ 8e	.
4CC 4GG	4c 4g	[	8ryy	.	4G 4e-X	[
.	.	.	8ryy	4ryy	.	.
=10	=10	=10	=10	=10	=10	=10
4CC 4GG	4c 4g	>	4.ryy	.	4G 4d	.
[4CC [4GG	[4c [4g	.	.	.	[4G [4d	>
.	.	.	8ryy	4ryy	.	.
8CCL] 8GG]	8cL] 8g]	.	8ryy	.	8GL] 8d]	.
8CC 8GG	8c 8g	.	8ryy	.	8G 8e-X	.
8CC 8GG	8c 8g	]	4ryy	4ryy	8G 8e-	.
8CCJ 8GG	8cJ 8g	.	.	.	8GJ 8e-	]
=	=	=	=	=	=	=
*-	*-	*-	*-	*-	*-	*-
!!!system-decoration: s1,s2[({(s3,s4)})]
